X: 1616
T: Joe Yates Mazurka No 3
B: australian traditional tunes wiki
M:3/4
L:1/8
R: Mazurka
Q: 1/4=100
K:C
V:1 
G2 |"C" c2 G2 E2 |"F" DE F2 F2 |"G7" BA GF ED |"C" CE G2 G2 |"C" cG E2 (3EFE |"F" DE F2 F2 |"G7" BA GF ED |"C" CE G2"G7" G2 |
"C" c2 G2 E2 |"F" DE F2 F2 |"G7" BA GF ED |"C" CE G2 G2 |"C" cG E2 (3EFE |"F" DE F2 F2 |"G7" BA GF ED |"C" C4 ||
|:EF |  "C" G2 (3GAG ^FG |"Dm7" A2 A2 GA |"G7" Bc BA GB |"C" c2 c2 EF |"C" G2 (3GAG ^FG |  "Dm7" A2 A2 c2 |"G7" BA GF ED |"C" C2 [CE]2:|
% abcbook-tune_id 6342d53aecc38482a53d8305


% abcbook-boost 0
% abcbook-tablature 
% abcbook-transpose 
% abcbook-lastupdated 1665324374151
% abcbook-soundfonts 
% abcbook-repeats 1
% NFF Book 2017
% Bush Traditions recording played by Ingrid Wangel

